Numix-GalliumOS/16/mimetypes/image-x-xcf.svg

<?xml version="1.0" encoding="UTF-8" standalone="no"?>
<svg
   xmlns:dc="http://purl.org/dc/elements/1.1/"
   xmlns:cc="http://creativecommons.org/ns#"
   xmlns:rdf="http://www.w3.org/1999/02/22-rdf-syntax-ns#"
   xmlns:svg="http://www.w3.org/2000/svg"
   xmlns="http://www.w3.org/2000/svg"
   xmlns:sodipodi="http://sodipodi.sourceforge.net/DTD/sodipodi-0.dtd"
   xmlns:inkscape="http://www.inkscape.org/namespaces/inkscape"
   width="16"
   height="16"
   viewBox="0 0 16 16"
   id="svg2"
   version="1.1"
   inkscape:version="0.48.5 r10040"
   sodipodi:docname="image-x-xcf.svg">
  <metadata
     id="metadata16">
    <rdf:RDF>
      <cc:Work
         rdf:about="">
        <dc:format>image/svg+xml</dc:format>
        <dc:type
           rdf:resource="http://purl.org/dc/dcmitype/StillImage" />
      </cc:Work>
    </rdf:RDF>
  </metadata>
  <defs
     id="defs14" />
  <sodipodi:namedview
     pagecolor="#ffffff"
     bordercolor="#666666"
     borderopacity="1"
     objecttolerance="10"
     gridtolerance="10"
     guidetolerance="10"
     inkscape:pageopacity="0"
     inkscape:pageshadow="2"
     inkscape:window-width="1280"
     inkscape:window-height="970"
     id="namedview12"
     showgrid="true"
     inkscape:zoom="41.7193"
     inkscape:cx="10.701794"
     inkscape:cy="8.9543633"
     inkscape:window-x="0"
     inkscape:window-y="0"
     inkscape:window-maximized="1"
     inkscape:current-layer="svg2">
    <inkscape:grid
       type="xygrid"
       id="grid2993" />
  </sodipodi:namedview>
  <path
     style="fill:#9a773c;fill-opacity:1"
     d="M 2.667969,-4.463e-4 C 2.324219,-4.463e-4 2,0.3378117 2,0.6964464 L 2,15.303108 C 2,15.641365 2.34375,16 2.667969,16 l 10.664062,0 C 13.65625,16 14,15.641365 14,15.303108 L 14,3.9995535 10,-4.463e-4 z"
     id="path4-2"
     inkscape:connector-curvature="0"
     sodipodi:nodetypes="ssssssccs" />
  <path
     style="fill:#ffffff"
     d="m 11.636791,4.8118192 c -0.03393,0.016967 -0.06787,0.079178 -0.09615,0.1753218 C 11.455814,5.2416396 10.867638,7.0005102 7.5365306,7.0853436 5.9473252,7.1249312 5.2686614,5.7053939 5.2686614,5.7053939 l -0.039588,1.8267356 c 0,0 0.1696652,0.4015431 -0.1696667,0.8313634 C 5.0424402,8.3295605 5.0311298,8.3012817 5.0085077,8.2673493 4.8840853,8.097684 4.7426974,7.9506395 4.5899977,7.843184 4.4146773,7.7187631 4.2280437,7.6395849 4.0527233,7.6113076 3.8434675,7.5773737 3.6398684,7.6282746 3.4815135,7.7413852 3.3231586,7.860151 3.227015,8.041128 3.1930825,8.2503823 c -0.033934,0.180977 -0.022624,0.378921 0.039588,0.5881753 0.050901,0.180977 0.1357328,0.361954 0.2601552,0.5372758 0.1300761,0.180977 0.2884325,0.3449871 0.4580977,0.4580977 0.1922888,0.1244224 0.3902313,0.1979439 0.5881752,0.2092559 0.062211,0.0057 0.124421,-0.01131 0.1809771,-0.01697 1.2781508,1.029306 3.817484,1.990747 5.5028317,0.887918 0.03393,0.01697 0.07352,0.02828 0.107455,0.03959 0,0.02262 -0.0057,0.03959 0,0.0509 l 0.07918,-0.02828 c 0.01697,0.0057 0.02828,0.01697 0.03959,0.02262 0.0057,0 0.0057,-0.0057 0.01131,0 l 0.02828,0.02828 0.757842,0.271465 C 11.21828,11.57018 11.348358,11.869922 11.676378,12 c 0.593832,0.231876 1.148073,0.525964 1.148073,0.525964 -0.282775,-0.972751 -0.384576,-1.758869 -1.125449,-1.691004 -0.14139,0.01131 -0.243188,0.06787 -0.322367,0.1527 l -0.667352,-0.435476 -0.02828,0 -0.01131,-0.01131 c 0.89923,-0.8992302 1.425194,-2.5902345 1.108484,-5.536766 -0.01697,-0.1470445 -0.07918,-0.2205661 -0.141387,-0.1922888 z"
     id="path10"
     inkscape:connector-curvature="0" />
  <path
     style="fill:#000000;fill-opacity:0.19599998"
     d="m 10.583223,3.3315845 0.0154,0.01953 0.04005,-0.01953 z m 0.02978,0.667969 3.387,3.664062 0,-3.664062 z"
     id="path6"
     inkscape:connector-curvature="0"
     sodipodi:nodetypes="cccccccc" />
  <path
     style="fill:#ffffff;fill-opacity:0.39200003"
     d="m 10,-4.463e-4 3.996396,3.9999998 -3.383784,0 C 10.313513,3.9995535 10,3.6824365 10,3.3833375 z"
     id="path8"
     inkscape:connector-curvature="0"
     sodipodi:nodetypes="ccssc" />
</svg>

<svg xmlns="http://www.w3.org/2000/svg" viewBox="0 0 16 16">
 <path d="m 2.668 0 c -0.344 0 -0.668 0.338 -0.668 0.697 l 0 14.607 c 0 0.338 0.344 0.697 0.668 0.697 l 10.664 0 c 0.324 0 0.668 -0.359 0.668 -0.697 l 0 -11.304 -4 -4 z" style="fill:#9a773c;fill-opacity:1"/>
 <path d="m 11.637 4.812 c -0.034 0.017 -0.068 0.079 -0.096 0.175 c -0.085 0.254 -0.673 2.01 -4 2.098 -1.589 0.04 -2.268 -1.38 -2.268 -1.38 l -0.04 1.827 c 0 0 0.17 0.402 -0.17 0.831 c -0.017 -0.034 -0.028 -0.062 -0.051 -0.096 -0.124 -0.17 -0.266 -0.317 -0.419 -0.424 -0.175 -0.124 -0.362 -0.204 -0.537 -0.232 -0.209 -0.034 -0.413 0.017 -0.571 0.13 -0.158 0.119 -0.254 0.3 -0.288 0.509 c -0.034 0.181 -0.023 0.379 0.04 0.588 0.051 0.181 0.136 0.362 0.26 0.537 0.13 0.181 0.288 0.345 0.458 0.458 0.192 0.124 0.39 0.198 0.588 0.209 0.062 0.006 0.124 -0.011 0.181 -0.017 1.278 1.029 3.817 1.991 5.503 0.888 0.034 0.017 0.074 0.028 0.107 0.04 0 0.023 -0.006 0.04 0 0.051 l 0.079 -0.028 c 0.017 0.006 0.028 0.017 0.04 0.023 0.006 0 0.006 -0.006 0.011 0 l 0.028 0.028 0.758 0.271 c -0.028 0.271 0.102 0.571 0.43 0.701 c 0.594 0.232 1.148 0.526 1.148 0.526 -0.283 -0.973 -0.385 -1.759 -1.125 -1.691 -0.141 0.011 -0.243 0.068 -0.322 0.153 l -0.667 -0.435 -0.028 0 -0.011 -0.011 c 0.899 -0.899 1.425 -2.59 1.108 -5.537 -0.017 -0.147 -0.079 -0.221 -0.141 -0.192 z" style="fill:#fff"/>
 <path d="m 10.583 3.332 0.015 0.02 0.04 -0.02 z m 0.03 0.668 3.387 3.664 0 -3.664 z" style="fill:#000;fill-opacity:0.196"/>
 <path d="m 10 0 3.996 4 -3.384 0 c -0.299 0 -0.613 -0.317 -0.613 -0.616 z" style="fill:#fff;fill-opacity:0.392"/>
</svg>
